!!!OTL: 27. Das Vaterlandspanier.
!!!ARE: Europa, Mitteleuropa, Deutschland; France, Elsass
!!!ODT: 1889
!!!SCT: B0027
!!!TXL: @@DE
!!!YEM: Copyright 1995, estate of Helmut Schaffrath.
**kern	**text
*ICvox	*
*Ivox	*
*M4/4	*
*met(c)	*
*clefG2	*
*k[b-e-a-]	*
*E-:	*
=1	=1
!LO:TX:a:t=Ernſt.	!
{4e-	Wo
4g	ein
4f	Al-
4a-	-tar
=2	=2
(4.g	ſteht,
8a-)	.
2b-/}	.
=3	=3
{4.b-	den
8cc	der
4b-	Lenʒ
4g	be-
=4	=4
2.f	-kränʒt,
4r}	.
=5	=5
{4f	wo
4b-	ein
4an	Ban-
4cc	-ner
=6	=6
(2b-	weht,
2ee-)}	.
=7	=7
{4.dd	drauf
8b-	die
4an	Lei-
8ddL	-er
8ccJ	.
=8	=8
2b-	glänʒt,
4r}	.
{8b-	wo
8b-	der
=9	=9
(2b-	Re-
4cc)	.
4dd	-be
=10	=10
(2ee-	Gold
4dd	.
4cc)}	.
=11	=11
{4.b-/	ſchimmert
8g	.
4a-	im
4cc	Po-
=12	=12
2.f	-kal,
4r}	.
=13	=13
{4.g	deutſches
8g	.
4a-/	Au-
4b-/	-ge
=14	=14
(4cc	ʒollt
4ee-)	.
8ddL	ei-
8ccJ	.
8b-L	-nen
8a-J}	.
=15	=15
{(2g	Freu-
4b-/)	.
4a-	-den-
=16	=16
2g;	-ſtrahl;
4r}	.
{8b-	wo
8b-	der
=17	=17
(2b-	Re-
4cc)	.
4dd	-be
=18	=18
(2ee-	Gold
4dd	.
4cc)}	.
=19	=19
{4.b-/	ſchimmert
8g	.
4a-	im
4cc	Po-
=20	=20
2.f	-kal,
4r}	.
=21	=21
{4.g	deutſches
8g	.
4a-	Au-
4b-/	-ge
=22	=22
(4cc	ʒollt
4ee-)	.
8ddL	ei-
8ccJ	.
8b-L	-nen
8a-J}	.
=23	=23
{(2g	Freu-
4b-/)	.
4a-	-den-
=24	=24
2g;	-ſtrahl;
2r}	.
==	==
!!!AGN: politisch, national, Vaterlands - Lied
!!!GTL: Vaterlandslieder und Heimathgrüße
!!!ONB: ESAC (Essen Associative Code) Database: BOEHME
!!!AMT: simple quadruple
!!!AIN: vox
!!!EED: Helmut Schaffrath
!!!EEV: 1.0
!!@@COMMENT:"Dieses natriotische Lied, offenbar zu einer Sänger-Fahnenweihe gedichtet und komponiert,
!!erhielt ich durch Straßburger Seminaristen als ein im Kreiß Weißenburg gehörtes. Text auch in
!!Hausburg’s Soldatenliederb. Berlin 1892, Nr. 350."
!!@@END:
!!!URL-scan: https://archive.org/details/BoehmeVtLieder1895/page/n47/mode/2up
!!!ENC: Anna Maria Matuszewska
!!!EEV: 2024/14/06
*-	*-
